X: 32
T: My Little Girl
I: My Little Girl	S-M	G	square
C: S-M
M: C|
Z: Transcribed to abc by Mary Lou Knack
R: square
K: G
B,C^C| "G"D4- DDEF| A2G4FG| A2G2 D2E2| "D7"F4 zA,A,B,|
       "D7"C4- CDEF| B2A4^GA| B2A2 F2 E2| "G"D4 zB,C^C|
       "G"D4- DDEF| A2G4FG| "G7"A2G2 B2A2| "C"E4 zE^DE|
       "E7+5"c4- cB^GE| "A7"B2A4^GA| "D7"B2A2 F2D2| "G"G4 z|]
% %text 9/1/98.  Formerly W-16

% ---------- N ----------

#include "RightHeader.h"
$SmallLMargin
$SmallRMargin
% %scale .9
